icons/op-no-hierarchy-16.svg

<svg width="16" height="16" viewBox="0 0 16 16" fill="none" xmlns="http://www.w3.org/2000/svg">
<path fill-rule="evenodd" clip-rule="evenodd" d="M5.81818 1C6.27005 1 6.63636 1.34822 6.63636 1.77778V5.14815H10.1818C10.6337 5.14815 11 5.49637 11 5.92593C11 6.35548 10.6337 6.7037 10.1818 6.7037H6.63636V9.2963H10.1818C10.6337 9.2963 11 9.64452 11 10.0741C11 10.5036 10.6337 10.8519 10.1818 10.8519H6.63636V13.1852C6.63636 13.3284 6.75847 13.4444 6.90909 13.4444H10.1818C10.6337 13.4444 11 13.7927 11 14.2222C11 14.6518 10.6337 15 10.1818 15H6.90909C5.85473 15 5 14.1875 5 13.1852V1.77778C5 1.34822 5.36631 1 5.81818 1Z" fill="#1F2328"/>
</svg>

<svg xmlns="http://www.w3.org/2000/svg" width="16" height="16" viewBox="0 0 16 16"><path d="M5.818 1c.452 0 .818.348.818.778v3.37h3.546c.452 0 .818.348.818.778 0 .429-.366.778-.818.778H6.636v2.592h3.546c.452 0 .818.349.818.778 0 .43-.366.778-.818.778H6.636v2.333c0 .143.122.259.273.259h3.273c.452 0 .818.349.818.778 0 .43-.366.778-.818.778H6.909C5.855 15 5 14.188 5 13.185V1.778c0-.43.366-.778.818-.778Z"/></svg>
